assets/images/settings_network_selected.svg

<?xml version="1.0" encoding="UTF-8"?>
<svg width="17px" height="19px" viewBox="0 0 17 19" version="1.1" xmlns="http://www.w3.org/2000/svg" xmlns:xlink="http://www.w3.org/1999/xlink">
    <!-- Generator: Sketch 42 (36781) - http://www.bohemiancoding.com/sketch -->
    <title>settings_network_selected</title>
    <desc>Created with Sketch.</desc>
    <defs></defs>
    <g id="Symbols" stroke="none" stroke-width="1" fill="none" fill-rule="evenodd">
        <g id="settings_network_selected" class="color-i-fill" fill="#FE5E00">
            <path d="M12.6037055,3.07883236 C12.6037055,2.22684531 13.2827096,1.53623032 14.1204026,1.53623032 C14.9579984,1.53623032 15.6370268,2.22684531 15.6370268,3.07883236 C15.6370268,3.93072039 14.9579984,4.62131063 14.1204026,4.62131063 C13.8117136,4.62131063 13.524686,4.52731926 13.2851921,4.36624425 C12.8965257,4.10486558 12.6331798,3.66674254 12.6061881,3.16430831 C12.6046547,3.13596485 12.6037055,3.10744811 12.6037055,3.07883236 M2.87959735,11.050523 C2.04197728,11.050523 1.36287587,10.3599081 1.36287587,9.507921 C1.36287587,8.65605772 2.04197728,7.96544273 2.87959735,7.96544273 C3.23506564,7.96544273 3.56164376,8.09007969 3.82024359,8.29836079 C4.17096581,8.58090424 4.39629449,9.01759154 4.39629449,9.507921 C4.39629449,9.99768112 4.17162295,10.4337991 3.82177693,10.7163425 C3.56288504,10.925391 3.23572278,11.050523 2.87959735,11.050523 M13.2832937,14.6289281 C13.5231526,14.4670609 13.8108617,14.3725992 14.1204026,14.3725992 C14.9579984,14.3725992 15.6370268,15.0631895 15.6370268,15.9150775 C15.6370268,16.7670646 14.9579984,17.4576795 14.1204026,17.4576795 C13.2827096,17.4576795 12.6037055,16.7670646 12.6037055,15.9150775 C12.6037055,15.8872291 12.60446,15.8594798 12.6059934,15.8319284 C12.6322306,15.3292962 12.8951141,14.8907771 13.2832937,14.6289281 M12.0841206,5.14976143 C12.348148,5.41829404 12.6559853,5.62927335 12.9990164,5.77683261 C13.3549715,5.93001106 13.732223,6.00754094 14.1204026,6.00754094 C14.5085093,6.00754094 14.8857608,5.93001106 15.2417159,5.77683261 C15.5847227,5.62927335 15.8925843,5.41829404 16.1566116,5.14976143 C16.4206147,4.88122881 16.6280787,4.5681388 16.7731623,4.21925433 C16.9236492,3.85732445 17,3.47353669 17,3.07883236 C17,2.68402902 16.9236492,2.30034027 16.7731623,1.93841039 C16.6280787,1.58942691 16.4206147,1.27641115 16.1566116,1.00790329 C15.8925843,0.739370675 15.5847227,0.528391373 15.2417159,0.380832107 C14.8857608,0.227653658 14.5085093,0.150000006 14.1204026,0.150000006 C13.732223,0.150000006 13.3549715,0.227653658 12.9990164,0.380832107 C12.6559853,0.528391373 12.348148,0.739370675 12.0841206,1.00790329 C11.8201176,1.27641115 11.6126536,1.58942691 11.46757,1.93841039 C11.3170831,2.30034027 11.2407323,2.68402902 11.2407323,3.07883236 C11.2407323,3.35788547 11.2790416,3.63134415 11.3546379,3.89561906 L5.04801474,7.58088759 C5.00561654,7.53167642 4.96161197,7.48360393 4.915782,7.43699193 C4.65175461,7.16848407 4.34401473,6.95748002 4.00088622,6.80992075 C3.64502851,6.65686607 3.26777699,6.57921242 2.87959735,6.57921242 C2.49139337,6.57921242 2.11414185,6.65686607 1.75828414,6.80992075 C1.41525299,6.95748002 1.10741575,7.16848407 0.843388363,7.43699193 C0.579385316,7.70552455 0.37192132,8.01863932 0.226837687,8.36749903 C0.0762534844,8.72952793 -4.54747351e-13,9.11321668 -4.54747351e-13,9.507921 C-4.54747351e-13,9.90272435 0.0762534844,10.2864131 0.226837687,10.648442 C0.37192132,10.9973265 0.579385316,11.3104412 0.843388363,11.5789491 C1.10741575,11.8474817 1.41525299,12.058461 1.75828414,12.2060203 C2.11414185,12.3590997 2.49139337,12.4367534 2.87959735,12.4367534 C3.26777699,12.4367534 3.64502851,12.3590997 4.00088622,12.2060203 C4.34401473,12.058461 4.65175461,11.8474817 4.915782,11.5789491 C4.96256119,11.5313717 5.00741761,11.4823585 5.05069201,11.4320829 L11.3533966,15.1024495 C11.2786765,15.3653629 11.2407323,15.6374601 11.2407323,15.9150775 C11.2407323,16.3099056 11.3170831,16.6935943 11.46757,17.0555242 C11.6126536,17.404483 11.8201176,17.7174987 12.0841206,17.9861056 C12.348148,18.2546382 12.6559853,18.4656175 12.9990164,18.6131768 C13.3549715,18.7662562 13.732223,18.8439099 14.1204026,18.8439099 C14.5085093,18.8439099 14.8857608,18.7662562 15.2417159,18.6131768 C15.5847227,18.4656175 15.8925843,18.2546382 16.1566116,17.9861056 C16.4206147,17.7174987 16.6280787,17.404483 16.7731623,17.0555242 C16.9236492,16.6935943 17,16.3099056 17,15.9150775 C17,15.5203732 16.9236492,15.1366844 16.7731623,14.7746555 C16.6280787,14.4257711 16.4206147,14.112681 16.1566116,13.8441484 C15.8925843,13.5756158 15.5847227,13.3646365 15.2417159,13.2170773 C14.8857608,13.0640226 14.5085093,12.9863689 14.1204026,12.9863689 C13.732223,12.9863689 13.3549715,13.0640226 12.9990164,13.2170773 C12.6559853,13.3646365 12.348148,13.5756158 12.0841206,13.8441484 C12.0661586,13.862417 12.0484886,13.8809826 12.030989,13.8996472 L5.67807345,10.2000707 C5.73188656,9.97478357 5.75926772,9.74338212 5.75926772,9.50802002 C5.75926772,9.27122218 5.73159449,9.03848401 5.67712424,8.81198388 L12.033934,5.09735697 C12.0504844,5.11505616 12.0672052,5.1324583 12.0841206,5.14976143" id="Fill-1"></path>
        </g>
    </g>
</svg>

<?xml version="1.0" encoding="UTF-8" standalone="no"?>
<svg
   xmlns:dc="http://purl.org/dc/elements/1.1/"
   xmlns:cc="http://creativecommons.org/ns#"
   xmlns:rdf="http://www.w3.org/1999/02/22-rdf-syntax-ns#"
   xmlns:svg="http://www.w3.org/2000/svg"
   xmlns="http://www.w3.org/2000/svg"
   xmlns:sodipodi="http://sodipodi.sourceforge.net/DTD/sodipodi-0.dtd"
   xmlns:inkscape="http://www.inkscape.org/namespaces/inkscape"
   width="19"
   height="19"
   viewBox="0 0 19 19"
   version="1.1"
   id="svg11"
   sodipodi:docname="settings_network_selected.svg"
   inkscape:version="0.92.2 2405546, 2018-03-11">
  <metadata
     id="metadata15">
    <rdf:RDF>
      <cc:Work
         rdf:about="">
        <dc:format>image/svg+xml</dc:format>
        <dc:type
           rdf:resource="http://purl.org/dc/dcmitype/StillImage" />
        <dc:title>settings_network_selected</dc:title>
      </cc:Work>
    </rdf:RDF>
  </metadata>
  <sodipodi:namedview
     pagecolor="#ffffff"
     bordercolor="#666666"
     borderopacity="1"
     objecttolerance="10"
     gridtolerance="10"
     guidetolerance="10"
     inkscape:pageopacity="0"
     inkscape:pageshadow="2"
     inkscape:window-width="868"
     inkscape:window-height="480"
     id="namedview13"
     showgrid="false"
     inkscape:zoom="12.421053"
     inkscape:cx="8.5"
     inkscape:cy="9.5"
     inkscape:window-x="0"
     inkscape:window-y="35"
     inkscape:window-maximized="0"
     inkscape:current-layer="svg11" />
  <!-- Generator: Sketch 42 (36781) - http://www.bohemiancoding.com/sketch -->
  <title
     id="title2">settings_network_selected</title>
  <desc
     id="desc4">Created with Sketch.</desc>
  <defs
     id="defs6" />
  <g
     id="Symbols"
     style="fill:none;fill-rule:evenodd;stroke:none;stroke-width:1"
     transform="translate(1)">
    <g
       id="settings_network_selected"
       class="color-i-fill"
       style="fill:#fe5e00">
      <path
         d="m 12.603706,3.0788324 c 0,-0.8519871 0.679004,-1.5426021 1.516697,-1.5426021 0.837595,0 1.516624,0.690615 1.516624,1.5426021 0,0.851888 -0.679029,1.5424782 -1.516624,1.5424782 -0.308689,0 -0.595717,-0.093991 -0.835211,-0.2550664 -0.388666,-0.2613786 -0.652012,-0.6995017 -0.679004,-1.2019359 -0.0015,-0.028343 -0.0025,-0.05686 -0.0025,-0.085476 M 2.8795974,11.050523 c -0.8376201,0 -1.5167215,-0.690615 -1.5167215,-1.542602 0,-0.8518633 0.6791014,-1.5424783 1.5167215,-1.5424783 0.3554682,0 0.6820464,0.124637 0.9406462,0.3329181 0.3507222,0.2825434 0.5760509,0.7192307 0.5760509,1.2095602 0,0.4897601 -0.2246716,0.925878 -0.5745176,1.208422 -0.2588919,0.209048 -0.5860541,0.33418 -0.9421795,0.33418 m 10.4036966,3.578405 c 0.239859,-0.161867 0.527568,-0.256329 0.837109,-0.256329 0.837595,0 1.516624,0.690591 1.516624,1.542479 0,0.851987 -0.679029,1.542601 -1.516624,1.542601 -0.837693,0 -1.516697,-0.690614 -1.516697,-1.542601 0,-0.02785 7.54e-4,-0.0556 0.0023,-0.08315 0.02624,-0.502632 0.289121,-0.941151 0.677301,-1.203 M 12.084121,5.1497614 c 0.264027,0.2685326 0.571864,0.4795119 0.914895,0.6270712 0.355956,0.1531785 0.733207,0.2307083 1.121387,0.2307083 0.388106,0 0.765358,-0.07753 1.121313,-0.2307083 C 15.584723,5.6292733 15.892584,5.418294 16.156612,5.1497614 16.420615,4.8812288 16.628079,4.5681388 16.773162,4.2192543 16.923649,3.8573245 17,3.4735367 17,3.0788324 17,2.684029 16.923649,2.3003403 16.773162,1.9384104 16.628079,1.5894269 16.420615,1.2764111 16.156612,1.0079033 15.892584,0.73937067 15.584723,0.52839137 15.241716,0.38083211 14.885761,0.22765366 14.508509,0.15000001 14.120403,0.15000001 c -0.38818,0 -0.765431,0.0776537 -1.121387,0.2308321 -0.343031,0.14755926 -0.650868,0.35853856 -0.914895,0.62707119 -0.264003,0.2685078 -0.471467,0.5815236 -0.616551,0.9305071 -0.150487,0.3619299 -0.226838,0.7456186 -0.226838,1.140422 0,0.2790531 0.03831,0.5525118 0.113906,0.8167867 L 5.0480147,7.5808876 C 5.0056165,7.5316764 4.961612,7.4836039 4.915782,7.4369919 4.6517546,7.1684841 4.3440147,6.95748 4.0008862,6.8099207 3.6450285,6.6568661 3.267777,6.5792124 2.8795974,6.5792124 c -0.388204,0 -0.7654555,0.077654 -1.1213133,0.2307083 C 1.415253,6.95748 1.1074157,7.1684841 0.84338836,7.4369919 0.57938532,7.7055245 0.37192132,8.0186393 0.22683769,8.367499 0.07625348,8.7295279 0,9.1132167 0,9.507921 c 0,0.3948034 0.07625348,0.778492 0.22683769,1.140521 0.14508363,0.348885 0.35254763,0.661999 0.61655067,0.930507 0.26402734,0.268533 0.57186464,0.479512 0.91489574,0.627071 0.3558578,0.15308 0.7331093,0.230733 1.1213133,0.230733 0.3881796,0 0.7654311,-0.07765 1.1212888,-0.230733 0.3431285,-0.147559 0.6508684,-0.358538 0.9148958,-0.627071 0.046779,-0.04758 0.091636,-0.09659 0.13491,-0.146866 l 6.302705,3.670367 c -0.07472,0.262913 -0.112665,0.53501 -0.112665,0.812628 0,0.394828 0.07635,0.778516 0.226838,1.140446 0.145084,0.348959 0.352548,0.661975 0.616551,0.930582 0.264027,0.268532 0.571864,0.479511 0.914895,0.627071 0.355956,0.153079 0.733207,0.230733 1.121387,0.230733 0.388106,0 0.765358,-0.07765 1.121313,-0.230733 0.343007,-0.14756 0.650868,-0.358539 0.914896,-0.627071 0.264003,-0.268607 0.471467,-0.581623 0.61655,-0.930582 C 16.923649,16.693594 17,16.309906 17,15.915078 c 0,-0.394705 -0.07635,-0.778394 -0.226838,-1.140422 -0.145083,-0.348885 -0.352547,-0.661975 -0.61655,-0.930508 -0.264028,-0.268532 -0.571889,-0.479511 -0.914896,-0.627071 -0.355955,-0.153054 -0.733207,-0.230708 -1.121313,-0.230708 -0.38818,0 -0.765431,0.07765 -1.121387,0.230708 -0.343031,0.14756 -0.650868,0.358539 -0.914895,0.627071 -0.01796,0.01827 -0.03563,0.03683 -0.05313,0.0555 L 5.6780734,10.200071 c 0.053813,-0.2252874 0.081194,-0.4566889 0.081194,-0.692051 0,-0.2367978 -0.027673,-0.469536 -0.082143,-0.6960361 L 12.033934,5.097357 c 0.01655,0.017699 0.03327,0.035101 0.05019,0.052404"
         id="Fill-1"
         inkscape:connector-curvature="0" />
    </g>
  </g>
</svg>
